build/img/about_methods/card/icons/orange.svg

<svg width="62" height="62" viewBox="0 0 62 62" fill="none" xmlns="http://www.w3.org/2000/svg">
<path fill-rule="evenodd" clip-rule="evenodd" d="M23.2543 1.56584C38.0297 0.571923 54.4248 5.2955 59.2861 18.8378C64.5982 33.6359 57.7418 50.7605 43.7105 58.5512C32.1388 64.9762 19.7266 54.929 9.74199 46.3464C2.6744 40.2711 -0.653369 31.4643 1.99369 22.6917C5.14195 12.2582 12.0444 2.3199 23.2543 1.56584Z" fill="#EACE87"/>
<path d="M28.8102 21.4266C29.7511 19.5906 32.3764 19.6364 33.2527 21.5042L34.7672 24.7322C35.1152 25.4738 35.8037 25.9957 36.6085 26.1277L40.1109 26.7023C42.1375 27.0347 42.9049 29.5603 41.4096 30.9762L38.8252 33.4231C38.2314 33.9853 37.9506 34.8054 38.0743 35.6161L38.6127 39.1443C38.9243 41.1858 36.7733 42.7009 34.9728 41.7082L31.8611 39.9925C31.1461 39.5983 30.284 39.5833 29.5557 39.9523L26.3861 41.5583C24.552 42.4876 22.4552 40.8984 22.8378 38.869L23.499 35.3617C23.6509 34.5558 23.3989 33.7264 22.8251 33.1438L20.3277 30.6082C18.8827 29.141 19.7378 26.6437 21.7748 26.3822L25.2951 25.9303C26.104 25.8264 26.8103 25.3289 27.184 24.5998L28.8102 21.4266Z" fill="white"/>
</svg>

<svg width="62" height="62" fill="none" xmlns="http://www.w3.org/2000/svg"><path fill-rule="evenodd" clip-rule="evenodd" d="M23.254 1.566c14.776-.994 31.17 3.73 36.032 17.272 5.312 14.798-1.544 31.922-15.575 39.713-11.572 6.425-23.984-3.622-33.969-12.205C2.674 40.271-.653 31.464 1.994 22.692 5.142 12.258 12.044 2.32 23.254 1.566Z" fill="#EACE87"/><path d="M28.81 21.427c.941-1.836 3.566-1.79 4.443.077l1.514 3.228a2.479 2.479 0 0 0 1.841 1.396l3.503.574c2.027.333 2.794 2.858 1.299 4.274l-2.585 2.447a2.501 2.501 0 0 0-.75 2.193l.538 3.528c.311 2.042-1.84 3.557-3.64 2.564l-3.112-1.715a2.465 2.465 0 0 0-2.305-.04l-3.17 1.605c-1.834.93-3.93-.66-3.548-2.689l.661-3.507a2.501 2.501 0 0 0-.674-2.218l-2.497-2.536c-1.445-1.467-.59-3.964 1.447-4.226l3.52-.452a2.479 2.479 0 0 0 1.889-1.33l1.626-3.173Z" fill="#fff"/></svg>
